X:32
T:Romantic Courtesan
C:Chris Perry
S:The Fiddle Player's Tunebook 1
M:4/4
L:1/8
Q:70
K:C
AG |
"Dm"FDDF A2 GF |"Am"ECEG c2 "C"FG |"F"A2 FA "C"GE G2 |"Dm"F2 DF "Am"E2 A
G |
"Dm"FDDF A2 GF |"Am"ECEG "C"c2 AG |"Dm"Ffed "A"^cage |"D"d2 d^c d2 :|
DE |
"Dm"F2 d2 AGFE |"C"C2 c2 "Am"G2 FG |"Dm"A2 D2 DEFD |"A".E2 .^C2 .A,2 z2
|
"Dm"DEDE FEFD |"Gm"G^FGA _BA_BG |"Dm"Ad^cB "A"^cage |"D"d2 d^c d2 DE |
"Dm"F2 d2 AGFE |"C"C2 "Am"c2 G2 FG |"Dm"A2 D2 DEFD |"A"E2 ^c4 z2 |
"Dm"d^cde fefd |"Gm"g^fga _ba_bg |"Dm"a2 a_b "A"agfe |"D"dA^FA D4 ||

